icons/desktop/40/shopping-cart-40.svg

<svg width="40" height="40" viewBox="0 0 40 40" fill="none" xmlns="http://www.w3.org/2000/svg">
<path d="M16.5 32C17.8807 32 19 33.1193 19 34.5C19 35.8807 17.8807 37 16.5 37C15.1193 37 14 35.8807 14 34.5C14 33.1193 15.1193 32 16.5 32Z" fill="black"/>
<path d="M31.5 32C32.8807 32 34 33.1193 34 34.5C34 35.8807 32.8807 37 31.5 37C30.1193 37 29 35.8807 29 34.5C29 33.1193 30.1193 32 31.5 32Z" fill="black"/>
<path fill-rule="evenodd" clip-rule="evenodd" d="M5.16699 4C7.52199 4 9.60352 5.58547 10.2285 7.85547L11.2119 11.4229C15.5099 10.4789 19.9115 10 24.3135 10H24.3242C27.768 10.001 31.2379 10.2969 34.6367 10.8799C36.0957 11.1299 37.3877 11.9884 38.1807 13.2344C38.9725 14.4762 39.2052 16.0049 38.8174 17.4287L36.7158 25.126C36.2328 26.895 34.8259 28.3018 33.0439 28.7998C30.1959 29.5968 27.2528 30 24.2988 30C21.3449 30 18.4017 29.5958 15.5518 28.7988C13.7729 28.3028 12.3649 26.8978 11.8779 25.1299L7.33594 8.65234C7.06794 7.67934 6.17599 7 5.16699 7H1.5C0.671 7 0 6.329 0 5.5C0 4.671 0.671 4 1.5 4H5.16699ZM24.3818 13C20.2479 13 16.118 13.4433 12.0801 14.3193L14.8398 24.333C15.0518 25.1009 15.6448 25.6911 16.4277 25.9092C21.6066 27.3571 27.1378 27.356 32.3047 25.9111C33.0877 25.6921 33.6806 25.1039 33.8896 24.3359L35.9902 16.6396C36.1581 16.0218 36.0627 15.3846 35.7197 14.8457C35.3748 14.304 34.835 13.9459 34.1982 13.8369C30.9632 13.2809 27.6188 12.983 24.3818 13Z" fill="black"/>
</svg>

<!-- This Source Code Form is subject to the terms of the Mozilla Public
   - License, v. 2.0. If a copy of the MPL was not distributed with this
   - file, You can obtain one at http://mozilla.org/MPL/2.0/. -->
<svg xmlns="http://www.w3.org/2000/svg" width="40" height="40" fill="context-fill" fill-opacity="context-fill-opacity" viewBox="0 0 40 40">
    <path d="M16.5 32a2.5 2.5 0 1 1 0 5 2.5 2.5 0 0 1 0-5M31.5 32a2.5 2.5 0 1 1 0 5 2.5 2.5 0 0 1 0-5" />
    <path fill-rule="evenodd" d="M5.167 4a5.26 5.26 0 0 1 5.062 3.855l.983 3.568A61 61 0 0 1 24.314 10h.01c3.444.001 6.914.297 10.313.88a5.26 5.26 0 0 1 3.544 2.354 5.25 5.25 0 0 1 .636 4.195l-2.101 7.697a5.29 5.29 0 0 1-3.672 3.674 32.45 32.45 0 0 1-17.492-.001 5.3 5.3 0 0 1-3.674-3.67L7.336 8.653A2.256 2.256 0 0 0 5.167 7H1.5a1.5 1.5 0 1 1 0-3zm19.215 9c-4.134 0-8.264.443-12.302 1.32l2.76 10.013a2.25 2.25 0 0 0 1.588 1.576 29.6 29.6 0 0 0 15.877.002 2.25 2.25 0 0 0 1.585-1.575l2.1-7.696a2.22 2.22 0 0 0-.27-1.794 2.23 2.23 0 0 0-1.522-1.01c-3.235-.555-6.58-.853-9.816-.836" clip-rule="evenodd" />
</svg>
